src/ios-pint-outline.svg

<?xml version="1.0" encoding="utf-8"?>
<!-- Generated by IcoMoon.io -->
<!DOCTYPE svg PUBLIC "-//W3C//DTD SVG 1.1//EN" "http://www.w3.org/Graphics/SVG/1.1/DTD/svg11.dtd">
<svg version="1.1" xmlns="http://www.w3.org/2000/svg" xmlns:xlink="http://www.w3.org/1999/xlink" width="512" height="512" viewBox="0 0 512 512">
<path fill="#000000" d="M368 170.085c0-21.022-0.973-88.554-19.308-125.013-4.448-8.844-12.442-13.072-31.693-13.072h-121.998c-19.25 0-27.246 4.197-31.693 13.041-18.335 36.459-19.308 104.209-19.308 125.231 0 98 32 100.353 32 180.853 0 39.5-16 71.402-16 99.402 0 27 9 29.473 32 29.473h128c23 0 32-2.535 32-29.535 0-28-16-59.715-16-99.215 0-80.5 32-83.165 32-181.165zM177.602 51.983c0.778-1.546 1.339-1.763 2.53-2.295 1.977-0.884 6.161-1.688 14.869-1.688h121.998c8.708 0 12.893 0.803 14.869 1.687 1.19 0.532 1.752 0.872 2.53 2.418 8.029 15.967 13.601 42.611 16.105 75.896h-189.007c2.505-33.348 8.076-60.050 16.106-76.018zM334.631 462.636c-1.871 0.741-6.787 1.364-14.631 1.364h-128c-7.844 0-12.761-0.623-14.639-1.359-0.394-0.93-1.361-4.166-1.361-12.27 0-10.856 3.016-23.16 6.508-37.334 4.449-18.059 9.492-38.557 9.492-61.943 0-40.997-7.993-63.802-15.724-85.842-8.002-22.814-16.276-46.414-16.276-95.097 0-9.025 0.191-17.756 0.558-26.155h190.886c0.365 8.376 0.557 17.083 0.557 26.085 0 48.688-8.276 72.302-16.28 95.169-7.728 22.079-15.72 44.895-15.72 85.887 0 23.39 5.043 43.822 9.493 61.856 3.491 14.15 6.507 26.368 6.507 37.222-0.001 8.136-0.977 11.494-1.37 12.417z"></path>
</svg>

<?xml version="1.0" encoding="utf-8"?>
<!-- Generator: Adobe Illustrator 16.2.1, SVG Export Plug-In . SVG Version: 6.00 Build 0)  -->
<!DOCTYPE svg PUBLIC "-//W3C//DTD SVG 1.1//EN" "http://www.w3.org/Graphics/SVG/1.1/DTD/svg11.dtd">
<svg version="1.1" id="Layer_1" xmlns="http://www.w3.org/2000/svg" xmlns:xlink="http://www.w3.org/1999/xlink" x="0px" y="0px"
	 width="512px" height="512px" viewBox="0 0 512 512" enable-background="new 0 0 512 512" xml:space="preserve">
<path d="M368,170.085c0-21.022-0.973-88.554-19.308-125.013C344.244,36.228,336.25,32,316.999,32H195.001
	c-19.25,0-27.246,4.197-31.693,13.041C144.973,81.5,144,149.25,144,170.272c0,98,32,100.353,32,180.853c0,39.5-16,71.402-16,99.402
	c0,27,9,29.473,32,29.473h128c23,0,32-2.535,32-29.535c0-28-16-59.715-16-99.215C336,270.75,368,268.085,368,170.085z
	 M177.602,51.983c0.778-1.546,1.339-1.763,2.53-2.295c1.977-0.884,6.161-1.688,14.869-1.688h121.998
	c8.708,0,12.893,0.803,14.869,1.687c1.19,0.532,1.752,0.872,2.53,2.418c8.029,15.967,13.601,42.611,16.105,75.896H161.496
	C164.001,94.653,169.572,67.951,177.602,51.983z M334.631,462.636C332.76,463.377,327.844,464,320,464H192
	c-7.844,0-12.761-0.623-14.639-1.359c-0.394-0.93-1.361-4.166-1.361-12.27c0-10.856,3.016-23.16,6.508-37.334
	c4.449-18.059,9.492-38.557,9.492-61.943c0-40.997-7.993-63.802-15.724-85.842C168.274,242.438,160,218.838,160,170.155
	c0-9.025,0.191-17.756,0.558-26.155h190.886c0.365,8.376,0.557,17.083,0.557,26.085c0,48.688-8.276,72.302-16.28,95.169
	c-7.728,22.079-15.72,44.895-15.72,85.887c0,23.39,5.043,43.822,9.493,61.856c3.491,14.15,6.507,26.368,6.507,37.222
	C336,458.355,335.024,461.713,334.631,462.636z"/>
</svg>
